X: 1993
T: Working on the Railroad
C:trad US American
B: australian traditional tunes wiki
M:6/8
L:1/8
R: Jig
Q: 3/8=100
K:G
V:1 
"G"B4-BA|B2AG2E|D6|G6|"Am"A3-A2A|"C"B2A GB2|"D"A6-|A3D^C=C|
"G"B,2DG2F|G3GGF|"C"E2FG2E|"G"D3B2A|G2F GE2|"D"D3A3|"G"G6-|G6||
% abcbook-tune_id 6342d5be96ca650c33721661


% abcbook-boost 0
% abcbook-tablature 
% abcbook-transpose 
% abcbook-lastupdated 1665324493024
% abcbook-soundfonts 
% abcbook-repeats 1
% NFF Book 2020

